src/assets/icons/pul-icon-guide.svg

<!-- Generated by IcoMoon.io -->
<svg version="1.1" xmlns="http://www.w3.org/2000/svg" width="16" height="16" viewBox="0 0 16 16">
<title>guide</title>
<path d="M15.194 4.062l-4.667-3.333c-0.116-0.083-0.271-0.083-0.387 0l-4.473 3.195-4.473-3.195c-0.102-0.073-0.235-0.082-0.347-0.025s-0.181 0.171-0.181 0.296v10.667c0 0.108 0.052 0.209 0.139 0.271l4.667 3.333c0.006 0.005 0.014 0.003 0.020 0.007 0.051 0.032 0.109 0.055 0.174 0.055s0.123-0.023 0.174-0.055c0.006-0.004 0.014-0.002 0.020-0.007l4.473-3.195 4.473 3.195c0.058 0.041 0.125 0.062 0.194 0.062 0.052 0 0.105-0.012 0.153-0.037 0.111-0.057 0.181-0.171 0.181-0.296v-10.667c0-0.108-0.052-0.209-0.139-0.271zM6 4.505l4-2.857v9.848l-4 2.857v-9.848zM1.333 1.648l4 2.857v9.847l-4-2.857v-9.848zM14.667 14.352l-4-2.857v-9.847l4 2.857v9.847z"></path>
</svg>

<svg xmlns="http://www.w3.org/2000/svg" viewBox="0 0 16 16">
    <path d="M15.194 4.062L10.527.729a.332.332 0 0 0-.387 0L5.667 3.924 1.194.729A.334.334 0 0 0 .666 1v10.667c0 .108.052.209.139.271l4.667 3.333c.006.005.014.003.02.007.051.032.109.055.174.055s.123-.023.174-.055c.006-.004.014-.002.02-.007l4.473-3.195 4.473 3.195a.334.334 0 0 0 .528-.271V4.333a.333.333 0 0 0-.139-.271zM6 4.505l4-2.857v9.848l-4 2.857V4.505zM1.333 1.648l4 2.857v9.847l-4-2.857V1.647zm13.334 12.704l-4-2.857V1.648l4 2.857v9.847z"/>
</svg>
